!!!id: 18xx:95
!!!COM: Gotschalk, Filip
!!!OTL: Pastorella (Puer natus)
!!!PDT:
!!!SMS-siglum: PL-CZ
!!!SMS-shelfmark: I-26
!!!NIFC-rismID:
!!!URL-scan: http://repozytorium.nifc.pl/skany/pl-cz-nut--i-26
!!!ONB-nifc:
!!!ENC: Andrzej Borzym
!!!END: 2020-02-03
**kern	**dynam	**kern	**text	**text	**text	**text	**text	**text	**text	**kern	**text	**text	**text	**text	**text	**text	**text	**kern	**text	**text	**text	**text	**text	**text	**text	**kern	**dynam	**kern	**kern	**dynam	**kern	**kern	**kern	**kern
*part11	*part11	*part10	*part10	*part10	*part10	*part10	*part10	*part10	*part10	*part9	*part9	*part9	*part9	*part9	*part9	*part9	*part9	*part8	*part8	*part8	*part8	*part8	*part8	*part8	*part8	*part7	*part7	*part6	*part5	*part5	*part4	*part3	*part2	*part1
*staff11	*	*staff10	*staff10	*staff10	*staff10	*staff10	*staff10	*staff10	*staff10	*staff9	*staff9	*staff9	*staff9	*staff9	*staff9	*staff9	*staff9	*staff8	*staff8	*staff8	*staff8	*staff8	*staff8	*staff8	*staff8	*staff7	*	*staff6	*staff5	*	*staff4	*staff3	*staff2	*staff1
*I"Basſo. Organo.	*	*I"Basſo.	*	*	*	*	*	*	*	*I"Canto 2do.	*	*	*	*	*	*	*	*I"Canto Primo	*	*	*	*	*	*	*	*I"Alto Viola.	*	*I"Violino Secondo.	*I"Violino Primo.	*	*I"Cornu Secondo.	*I"Cornu Primo ex G:	*I"Clarinetto Secondo. aut Flauto.	*I"Clarinetto Primo. vel Flauto.
*I'Org	*	*I'B	*	*	*	*	*	*	*	*I'C	*	*	*	*	*	*	*	*I'C	*	*	*	*	*	*	*	*I'Vla	*	*I'Vn II	*I'Vn I	*	*I'Cor II	*I'Cor I	*I'Cl II	*I'Cl I
*clefF4	*	*clefF4	*	*	*	*	*	*	*	*clefC1	*	*	*	*	*	*	*	*clefC1	*	*	*	*	*	*	*	*clefC3	*	*clefG2	*clefG2	*	*clefG2	*clefG2	*clefG2	*clefG2
*	*	*	*	*	*	*	*	*	*	*	*	*	*	*	*	*	*	*	*	*	*	*	*	*	*	*	*	*	*	*	*ITrd3c5	*ITrd3c5	*ITrd0c0	*ITrd0c0
*k[f#]	*	*k[f#]	*	*	*	*	*	*	*	*k[f#]	*	*	*	*	*	*	*	*k[f#]	*	*	*	*	*	*	*	*k[f#]	*	*k[f#]	*k[f#]	*	*k[f#]	*k[f#]	*k[f#]	*k[f#]
*G:	*	*G:	*	*	*	*	*	*	*	*G:	*	*	*	*	*	*	*	*G:	*	*	*	*	*	*	*	*G:	*	*G:	*G:	*	*	*	*G:	*G:
*M6/8	*	*M6/8	*	*	*	*	*	*	*	*M6/8	*	*	*	*	*	*	*	*M6/8	*	*	*	*	*	*	*	*M6/8	*	*M6/8	*M6/8	*	*M6/8	*M6/8	*M6/8	*M6/8
!	!	!	!	!	!	!	!	!	!	!LO:TX:a:t=Moderato.	!	!	!	!	!	!	!	!	!	!	!	!	!	!	!	!LO:TX:a:B:t=Moderato.	!	!LO:TX:a:B:t=Moderato.	!LO:TX:a:B:t=Moderato	!	!	!LO:TX:a:B:t=Moderato.	!LO:TX:a:B:t=Moderato.	!LO:TX:a:B:t=Moderato.
*tb32	*	*tb32	*	*	*	*	*	*	*	*tb32	*	*	*	*	*	*	*	*tb32	*	*	*	*	*	*	*	*tb32	*	*tb32	*tb32	*	*tb32	*tb32	*tb32	*tb32
8r	.	8D/	N:1.Pu	N.2 A-	=3.Cog-	=4 Re-	5 Hic	6 In	7.Lau-	8d/	1.Pu-	2.Aſ-	3.Cog-	4.Re-	5.Hic	6.In	7.Lau-	8d/	1.Pu-	2.Aſ-	3.Cog-	4.Re-	5.Hic	6.In	7.Lau-	8r	.	8r	8r	.	8r	8r	8r	8r
=1	=1	=1	=1	=1	=1	=1	=1	=1	=1	=1	=1	=1	=1	=1	=1	=1	=1	=1	=1	=1	=1	=1	=1	=1	=1	=1	=1	=1	=1	=1	=1	=1	=1	=1
!LO:TX:b:t=P:p z dwukropkiem:problem	!	!	!	!	!	!	!	!	!	!	!	!	!	!	!	!	!	!	!	!	!	!	!	!	!	!LO:TX:b:t=P:p z dwukropkiem:problem	!	!	!LO:TX:a:t=1.	!	!	!	!	!
8GG/L	p	4G\	er	-ſum-	-no-	-ges	ja-	hoc	-de-	4g/	-er	-ſum-	-no-	-ges	ja-	hoc	-de-	4g/	-er	-ſum-	-no-	-ges	ja-	hoc	-de-	8B/L	p	2.r	2.r	.	2.r	2.r	2.r	2.r
8BB/	.	.	.	.	.	.	.	.	.	.	.	.	.	.	.	.	.	.	.	.	.	.	.	.	.	8d/	.	.	.	.	.	.	.	.
8GG/J	.	8BB/	na-	-pſit	-vit	de	-cet	na-	-tur	8g/	na-	-pſit	-vit	de	-cet	na-	-tur	8g/	na-	-pſit	-vit	de	-cet	na-	-tur	8B/J	.	.	.	.	.	.	.	.
8D\L	.	4D/	-tus	for-	Bos	Sab-	in	-ta-	ſan-	4f#/	-tus	for-	bos	ſab-	in	-ta-	ſan-	4a\	-tus	for-	Bos	Sab-	in	-ta-	ſan-	8f#\L	.	.	.	.	.	.	.	.
8D\	.	.	.	.	.	.	.	.	.	.	.	.	.	.	.	.	.	.	.	.	.	.	.	.	.	8f#\	.	.	.	.	.	.	.	.
8D\J	.	8D/	in	-mam	et	-ba	prae-	-li	-cta	8f#/	in	-man	et	-ba	prae-	-li	-cta	8a\	in	-mam	et	-ba	prae-	-li	-cta	8f#\J	.	.	.	.	.	.	.	.
=2	=2	=2	=2	=2	=2	=2	=2	=2	=2	=2	=2	=2	=2	=2	=2	=2	=2	=2	=2	=2	=2	=2	=2	=2	=2	=2	=2	=2	=2	=2	=2	=2	=2	=2
8G\L	.	8G\L	Be-	ho-	A-	ve-	-ſe-	gau-	Tri-	8gL/	Be-	ho-	A-	ve-	-ſe-	gau-	tri-	8b\L	Be-	ho-	A-	ve-	-ſe-	gau-	Tri-	4d\	.	4r	4r	.	4r	4r	4r	4r
8G\	.	8D\J	.	.	.	.	.	.	.	8aJ/	.	.	.	.	.	.	.	8cc\J	.	.	.	.	.	.	.	.	.	.	.	.	.	.	.	.
8D\J	.	8D/	-thle-	-mi-	-ſi-	-ni-	-pi-	-di-	-ni-	8f#/	-thle-	-mi-	-ſi-	-ni-	-pi-	-di-	-ni-	8a\	-thle-	-mi-	-ſi-	-ni-	-pi-	-di-	-ni-	8c\	.	8r	8r	.	8r	8r	8r	8r
!LO:TX:a:t=P:mixed beam:problem	!	!	!	!	!	!	!	!	!	!	!	!	!	!	!	!	!	!	!	!	!	!	!	!	!	!LO:TX:a:t=P:mixed beam:problem	!	!	!	!	!	!	!	!
16GG/LL	.	4GG/	-hem,	-nis,	-nus,	-unt,	-o,	-o	-tas	4g/	-hem,	-nis,	-nus,	-unt,	-o,	-o	-tas,	4g/	-hem.	-nis.	-nus.	-unt	-o	-o	-tas	16B/LL	.	8r	8r	.	8r	8r	8r	8r
16G\	.	.	.	.	.	.	.	.	.	.	.	.	.	.	.	.	.	.	.	.	.	.	.	.	.	16g\	.	.	.	.	.	.	.	.
16D\	.	.	.	.	.	.	.	.	.	.	.	.	.	.	.	.	.	.	.	.	.	.	.	.	.	16d\	.	8r	8r	.	8r	8r	8r	8r
16BB\J	.	.	.	.	.	.	.	.	.	.	.	.	.	.	.	.	.	.	.	.	.	.	.	.	.	16B\J	.	.	.	.	.	.	.	.
!	!	!	!	!	!	!	!	!	!	!	!	!	!	!	!	!	!	!	!	!	!	!	!	!	!	!	!	!	!LO:TX:b:i:t=forte	!	!	!	!	!
8GG\J	.	8r	.	.	.	.	.	.	.	8r	.	.	.	.	.	.	.	8r	.	.	.	.	.	.	.	8G/J	.	8d/	8d/	.	8d/	8d/	8dd\	8dd\
=3	=3	=3	=3	=3	=3	=3	=3	=3	=3	=3	=3	=3	=3	=3	=3	=3	=3	=3	=3	=3	=3	=3	=3	=3	=3	=3	=3	=3	=3	=3	=3	=3	=3	=3
!LO:TX:b:t=P:f z dwukropkiem:problem	!	!	!	!	!	!	!	!	!	!	!	!	!	!	!	!	!	!LO:TX:a:t=P:dziwny znaczek nad pauzą:problem	!	!	!	!	!	!	!	!LO:TX:b:t=P:f z dwukropkiem:problem	!	!	!	!	!	!	!	!
8GG/L	f	2.r	.	.	.	.	.	.	.	2.r	.	.	.	.	.	.	.	2.r	.	.	.	.	.	.	.	8B/L	f	16B/LL	8g/L	.	4.B/	4.g\	4.b\	4gg\
.	.	.	.	.	.	.	.	.	.	.	.	.	.	.	.	.	.	.	.	.	.	.	.	.	.	.	.	16d/	.	.	.	.	.	.
8GG/	.	.	.	.	.	.	.	.	.	.	.	.	.	.	.	.	.	.	.	.	.	.	.	.	.	8B/	.	16B/	16g/L	.	.	.	.	.
.	.	.	.	.	.	.	.	.	.	.	.	.	.	.	.	.	.	.	.	.	.	.	.	.	.	.	.	16d/	16f#/	.	.	.	.	.
8GG/J	.	.	.	.	.	.	.	.	.	.	.	.	.	.	.	.	.	.	.	.	.	.	.	.	.	8B/J	.	16B/	16g/	.	.	.	.	16gg\LL
.	.	.	.	.	.	.	.	.	.	.	.	.	.	.	.	.	.	.	.	.	.	.	.	.	.	.	.	16d/JJ	16b/JJ	.	.	.	.	16bb\JJ
8D\L	.	.	.	.	.	.	.	.	.	.	.	.	.	.	.	.	.	.	.	.	.	.	.	.	.	8f#\L	.	8f#/L	8a\L	.	4.d/	4.a\	4.cc\	4aa\
8D\	.	.	.	.	.	.	.	.	.	.	.	.	.	.	.	.	.	.	.	.	.	.	.	.	.	8f#\	.	16f#/L	16a\L	.	.	.	.	.
.	.	.	.	.	.	.	.	.	.	.	.	.	.	.	.	.	.	.	.	.	.	.	.	.	.	.	.	16e/	16g\	.	.	.	.	.
8D\J	.	.	.	.	.	.	.	.	.	.	.	.	.	.	.	.	.	.	.	.	.	.	.	.	.	8f#\J	.	16f#/	16a\	.	.	.	.	16aa\LL
.	.	.	.	.	.	.	.	.	.	.	.	.	.	.	.	.	.	.	.	.	.	.	.	.	.	.	.	16a/JJ	16cc\JJ	.	.	.	.	16ccc\JJ
=4	=4	=4	=4	=4	=4	=4	=4	=4	=4	=4	=4	=4	=4	=4	=4	=4	=4	=4	=4	=4	=4	=4	=4	=4	=4	=4	=4	=4	=4	=4	=4	=4	=4	=4
!	!	!	!	!	!	!	!	!	!	!	!	!	!	!	!	!	!	!	!	!	!	!	!	!	!	!LO:LB:g=original	!	!	!	!	!	!	!	!
4G\	.	4r	.	.	.	.	.	.	.	4r	.	.	.	.	.	.	.	4r	.	.	.	.	.	.	.	4d\	.	8d/L	8b\L	.	4g\	4b\	8.dd\L	8.bb\L
.	.	.	.	.	.	.	.	.	.	.	.	.	.	.	.	.	.	.	.	.	.	.	.	.	.	.	.	16d/L	16b\L	.	.	.	.	.
.	.	.	.	.	.	.	.	.	.	.	.	.	.	.	.	.	.	.	.	.	.	.	.	.	.	.	.	16e/	16cc\	.	.	.	32ee\LL	16ccc\L
.	.	.	.	.	.	.	.	.	.	.	.	.	.	.	.	.	.	.	.	.	.	.	.	.	.	.	.	.	.	.	.	.	32ee\J	.
8D\	.	8r	.	.	.	.	.	.	.	8r	.	.	.	.	.	.	.	8r	.	.	.	.	.	.	.	8d\	.	16c/	16a\	.	8d/	8a\	16cc\	16aa\
.	.	.	.	.	.	.	.	.	.	.	.	.	.	.	.	.	.	.	.	.	.	.	.	.	.	.	.	16d/JJ	16b\JJ	.	.	.	16dd\JJ	16bb\JJ
!LO:LB:g=original	!	!	!	!	!	!	!	!	!	!	!	!	!	!	!	!	!	!	!	!	!	!	!	!	!	!	!	!	!	!	!	!	!	!
!LO:TX:a:t=P:mixed beam:problem	!	!	!	!	!	!	!	!	!	!	!	!	!	!	!	!	!	!	!	!	!	!	!	!	!	!LO:TX:a:t=P:mixed beam:problem	!	!	!	!	!	!	!	!
8G\L	.	4r	.	.	.	.	.	.	.	4r	.	.	.	.	.	.	.	4r	.	.	.	.	.	.	.	16B/LL	.	4B/	4g/	.	4B/	4g\	4b\	4gg\
.	.	.	.	.	.	.	.	.	.	.	.	.	.	.	.	.	.	.	.	.	.	.	.	.	.	16g\	.	.	.	.	.	.	.	.
8BB/	.	.	.	.	.	.	.	.	.	.	.	.	.	.	.	.	.	.	.	.	.	.	.	.	.	16d\	.	.	.	.	.	.	.	.
.	.	.	.	.	.	.	.	.	.	.	.	.	.	.	.	.	.	.	.	.	.	.	.	.	.	16B\J	.	.	.	.	.	.	.	.
8D/J	.	8G\	Un-	Ver-	quod	Au-	qui	Be-	De-	16g\LL	un-	Ver-	quod	Au-	qui	be-	De-	(<16gLL/	un-	Ver-	quod	Au-	qui	Be-	De-	8G\J	.	8r	8r	.	8r	8r	8r	8r
.	.	.	.	.	.	.	.	.	.	16f#/JJ	.	.	.	.	.	.	.	16aJJ)/	.	.	.	.	.	.	.	.	.	.	.	.	.	.	.	.
=5	=5	=5	=5	=5	=5	=5	=5	=5	=5	=5	=5	=5	=5	=5	=5	=5	=5	=5	=5	=5	=5	=5	=5	=5	=5	=5	=5	=5	=5	=5	=5	=5	=5	=5
!LO:TX:b:t=P:p z dwukropkiem:problem	!	!	!	!	!	!	!	!	!	!	!	!	!	!	!	!	!	!	!	!	!	!	!	!	!	!LO:TX:b:t=P:p z dwukropkiem:problem	!	!	!	!	!	!	!	!
!	!	!	!	!	!	!	!	!	!	!	!	!	!	!	!	!	!	!	!	!	!	!	!	!	!	!LO:TX:a:t=P:mixed beam:problem	!	!	!LO:TX:a:t=1.	!	!LO:TX:a:t=2	!LO:N:vis=0	!	!
8G\L	p	4G\	-de	-bu(m)	Pu-	-rum	reg-	-ne-	-o	4g/	-de	-bum	Pu-	-rum	reg-	-ne-	-o	4b\	-de	-bum	Pu-	-rum	reg-	-ne-	-o	8g\L	p	2.r	2.r	.	2.r	1.r	2.r	2.r
8G\	.	.	.	.	.	.	.	.	.	.	.	.	.	.	.	.	.	.	.	.	.	.	.	.	.	8G/	.	.	.	.	.	.	.	.
8G\J	.	8G\	gau-	Pat-	-er	Thus	-nat	-di-	di-	8g/	gau-	Pat-	-er	Thus	-nat	-di-	di-	8b\	gau-	Pat-	-er	Thus	-nat	-di-	di-	8g\J	.	.	.	.	.	.	.	.
!	!	!	!	!	!	!	!	!	!	!	!	!	!	!	!	!	!	!	!	!	!	!	!	!	!	!LO:TX:a:t=P:mixed beam:problem	!	!	!	!	!	!	!	!
8G\L	.	4G\	-det	-ris	e-	Myr-	ſi-	-ca-	-ca-	4a\	-det	-ris	e-	Myr-	ſi-	-ca-	-ca-	4cc\	-det	-ris	e-	Myr-	ſi-	-ca-	-ca-	8g\L	.	.	.	.	.	.	.	.
8G\	.	.	.	.	.	.	.	.	.	.	.	.	.	.	.	.	.	.	.	.	.	.	.	.	.	8G/	.	.	.	.	.	.	.	.
8G\J	.	8GG/	Je-	Al-	-rat	-ha(m)	-ne	-mus	-mus	16g\LL	Je-	al-	-rat	-rham	-ne	-mus	-mus	(>16b\LL	Je-	Al-	-rat	-rham	-ne	-mus	-mus	8g\J	.	.	.	.	.	.	.	.
!	!	!	!	!	!	!	!	!	!	!	!	!	!	!	!	!	!	!LO:LB:g=original	!	!	!	!	!	!	!	!	!	!	!	!	!	!	!	!
.	.	.	.	.	.	.	.	.	.	16a\JJ	.	.	.	.	.	.	.	16cc\JJ)	.	.	.	.	.	.	.	.	.	.	.	.	.	.	.	.
=6	=6	=6	=6	=6	=6	=6	=6	=6	=6	=6	=6	=6	=6	=6	=6	=6	=6	=6	=6	=6	=6	=6	=6	=6	=6	=6	=6	=6	=6	=6	=6	=6	=6	=6
!	!	!	!	!	!	!	!	!	!	!LO:LB:g=original	!	!	!	!	!	!	!	!	!	!	!	!	!	!	!	!	!	!LO:LB:g=original	!LO:LB:g=original	!	!	!	!	!LO:LB:g=original
8G\L	.	4G\	-ru-	-tis-	Do-	of-	ter-	Do-	Gra-	8b\L	-1. ru-	-2 tis-	3 Do-	4 of-	5 ter-	6 Do-	7 Gra-	(>8dd\L	-No1. ru-	-2 tis-	3 Do-	4 of-	5 ter-	6 Do-	7. Gra-	4g\	.	4r	4r	.	2.r	.	4r	4r
8G\	.	.	.	.	.	.	.	.	.	8cc\J	.	.	.	.	.	.	.	8ee\J)	.	.	.	.	.	.	.	.	.	.	.	.	.	.	.	.
8G\J	.	8D/	-ſa-	-ſi-	-mi-	-fe-	-mi-	-mi-	-ti-	8a\	-ſa-	-ſi-	-mi-	-fe-	-mi-	-mi-	-ti-	8cc\	-ſa-	-ſi-	-mi-	-fe-	-mi-	-mi-	-ti-	8d\	.	8r	8r	.	.	.	8r	8r
!LO:TX:a:t=P:mixed beam:problem	!	!	!	!	!	!	!	!	!	!	!	!	!	!	!	!	!	!	!	!	!	!	!	!	!	!LO:TX:a:t=P:mixed beam:problem	!	!	!	!	!	!	!	!
8G\L	.	4G\	-lem,	-me,	-nus,	-runt,	-no,	-no,	-as	4g/	-lem,	-mi,	-nus,	-runt,	-no,	-no,	-as	4b\	-lem	-mi	-nus	-runt	-no.	-no	-as	16G/LL	.	8r	8r	.	.	.	8r	8r
.	.	.	.	.	.	.	.	.	.	.	.	.	.	.	.	.	.	.	.	.	.	.	.	.	.	16g\	.	.	.	.	.	.	.	.
16D/L	.	.	.	.	.	.	.	.	.	.	.	.	.	.	.	.	.	.	.	.	.	.	.	.	.	16d\	.	8r	8r	.	.	.	8r	8r
16BB/J	.	.	.	.	.	.	.	.	.	.	.	.	.	.	.	.	.	.	.	.	.	.	.	.	.	16B\J	.	.	.	.	.	.	.	.
8GG/J	.	8r	.	.	.	.	.	.	.	8r	.	.	.	.	.	.	.	8r	.	.	.	.	.	.	.	8G\J	.	16g/LL	16g/LL	.	.	.	16gg\LL	16gg\LL
.	.	.	.	.	.	.	.	.	.	.	.	.	.	.	.	.	.	.	.	.	.	.	.	.	.	.	.	16f#/JJ	16a/JJ	.	.	.	16ff#\JJ	16aa\JJ
!LO:TX:b:Bi:t=for&colon;	!	!	!	!	!	!	!	!	!	!	!	!	!	!	!	!	!	!	!	!	!	!	!	!	!	!	!	!	!	!	!	!	!	!
=7	=7	=7	=7	=7	=7	=7	=7	=7	=7	=7	=7	=7	=7	=7	=7	=7	=7	=7	=7	=7	=7	=7	=7	=7	=7	=7	=7	=7	=7	=7	=7	=7	=7	=7
*tremolo	*	*	*	*	*	*	*	*	*	*	*	*	*	*	*	*	*	*	*	*	*	*	*	*	*	*	*	*	*	*	*	*	*	*
!	!	!LO:LB:g=original	!	!	!	!	!	!	!	!	!	!	!	!	!	!	!	!	!	!	!	!	!	!	!	!LO:TX:b:t=P:f z dwukropkiem:problem	!	!	!	!	!LO:LB:g=original	!	!LO:LB:g=original	!
!	!	!LO:TX:a:t=P:dziwny znaczek nad pauzą:problem	!	!	!	!	!	!	!	!	!	!	!	!	!	!	!	!LO:TX:a:t=P:dziwny znaczek nad pauzą:problem	!	!	!	!	!	!	!	!LO:TX:a:t=P:mixed beam:problem	!	!	!	!	!	!	!	!
8G\L	.	2.r	.	.	.	.	.	.	.	2.r	.	.	.	.	.	.	.	2.r	.	.	.	.	.	.	.	8g\L	f	8g/L	8b\L	.	4.g\	4.b\	4.gg\	4.bb\
8G\	.	.	.	.	.	.	.	.	.	.	.	.	.	.	.	.	.	.	.	.	.	.	.	.	.	8G/	.	16g/L	16b\L	.	.	.	.	.
.	.	.	.	.	.	.	.	.	.	.	.	.	.	.	.	.	.	.	.	.	.	.	.	.	.	.	.	16f#/	16a\	.	.	.	.	.
8G\J	.	.	.	.	.	.	.	.	.	.	.	.	.	.	.	.	.	.	.	.	.	.	.	.	.	8g\J	.	16g/	16b\	.	.	.	.	.
.	.	.	.	.	.	.	.	.	.	.	.	.	.	.	.	.	.	.	.	.	.	.	.	.	.	.	.	16b/JJ	16dd\JJ	.	.	.	.	.
!	!	!	!	!	!	!	!	!	!	!	!	!	!	!	!	!	!	!	!	!	!	!	!	!	!	!LO:TX:a:t=P:mixed beam:problem	!	!	!	!	!	!	!	!
8G\L	.	.	.	.	.	.	.	.	.	.	.	.	.	.	.	.	.	.	.	.	.	.	.	.	.	8g\L	.	8a/L	8cc\L	.	4.a\	4.cc\	4.aa\	4.ccc\
8G\	.	.	.	.	.	.	.	.	.	.	.	.	.	.	.	.	.	.	.	.	.	.	.	.	.	8G/	.	16a/L	16cc\L	.	.	.	.	.
.	.	.	.	.	.	.	.	.	.	.	.	.	.	.	.	.	.	.	.	.	.	.	.	.	.	.	.	16g/	16b\	.	.	.	.	.
8G\J	.	.	.	.	.	.	.	.	.	.	.	.	.	.	.	.	.	.	.	.	.	.	.	.	.	8g\J	.	16a/	16cc\	.	.	.	.	.
.	.	.	.	.	.	.	.	.	.	.	.	.	.	.	.	.	.	.	.	.	.	.	.	.	.	.	.	16cc/JJ	16ee\JJ	.	.	.	.	.
=8	=8	=8	=8	=8	=8	=8	=8	=8	=8	=8	=8	=8	=8	=8	=8	=8	=8	=8	=8	=8	=8	=8	=8	=8	=8	=8	=8	=8	=8	=8	=8	=8	=8	=8
!	!	!	!	!	!	!	!	!	!	!	!	!	!	!	!	!	!	!	!	!	!	!	!	!	!	!LO:LB:g=original	!	!	!	!	!	!	!	!
8G\L	.	4r	.	.	.	.	.	.	.	4r	.	.	.	.	.	.	.	4r	.	.	.	.	.	.	.	4g\	.	8b\L	8dd\L	.	4b\	4dd\	4bb\	4ddd\
8G\	.	.	.	.	.	.	.	.	.	.	.	.	.	.	.	.	.	.	.	.	.	.	.	.	.	.	.	16b\L	16dd\L	.	.	.	.	.
.	.	.	.	.	.	.	.	.	.	.	.	.	.	.	.	.	.	.	.	.	.	.	.	.	.	.	.	16cc\	16ee\	.	.	.	.	.
8G\J	.	8r	.	.	.	.	.	.	.	8r	.	.	.	.	.	.	.	8r	.	.	.	.	.	.	.	8d\	.	16a\	16cc\	.	8a\	8cc\	16aa\LL	16ccc\LL
.	.	.	.	.	.	.	.	.	.	.	.	.	.	.	.	.	.	.	.	.	.	.	.	.	.	.	.	16b\JJ	16dd\JJ	.	.	.	16bb\JJ	16ddd\JJ
*Xtremolo	*	*	*	*	*	*	*	*	*	*	*	*	*	*	*	*	*	*	*	*	*	*	*	*	*	*	*	*	*	*	*	*	*	*
!	!	!	!	!	!	!	!	!	!	!	!	!	!	!	!	!	!	!	!	!	!	!	!	!	!	!LO:TX:a:t=P:mixed beam:problem	!	!	!	!	!	!	!	!
8G\L	.	4r	.	.	.	.	.	.	.	4r	.	.	.	.	.	.	.	4r	.	.	.	.	.	.	.	16G/LL	.	4g/	4b/	.	4g\	4b\	4gg\	4bb\
.	.	.	.	.	.	.	.	.	.	.	.	.	.	.	.	.	.	.	.	.	.	.	.	.	.	16g\	.	.	.	.	.	.	.	.
16D\L	.	.	.	.	.	.	.	.	.	.	.	.	.	.	.	.	.	.	.	.	.	.	.	.	.	16d\	.	.	.	.	.	.	.	.
16BB\J	.	.	.	.	.	.	.	.	.	.	.	.	.	.	.	.	.	.	.	.	.	.	.	.	.	16B\J	.	.	.	.	.	.	.	.
!	!	!	!	!	!	!	!	!	!	!	!	!	!	!	!	!	!	!LO:TX:a:t=P: w 4. zwrotce nieoczywiste podłożenie tekstu:problem	!	!	!	!LO:TX:a:t=P:	!	!	!	!	!	!	!	!	!	!	!	!
8GG\J	.	8G\	Nro.1. Un	2. Ver	3. Quod	4.Au-	5.Qui	6.Be-	7.De-	8ee\	un-	Ver-	quod	Au-	qui	be-	De-	8gg\	un-	Ver-	quod	Au-	qui	be-	De-	8G\J	.	8r	8r	.	8r	8r	8r	8r
=9	=9	=9	=9	=9	=9	=9	=9	=9	=9	=9	=9	=9	=9	=9	=9	=9	=9	=9	=9	=9	=9	=9	=9	=9	=9	=9	=9	=9	=9	=9	=9	=9	=9	=9
!LO:LB:g=original	!	!	!	!	!	!	!	!	!	!	!	!	!	!	!	!	!	!	!	!	!	!	!	!	!	!	!	!LO:TX:a:t=4	!LO:TX:a:t=3	!	!LO:TX:a:t=4	!	!	!LO:TX:a:t=3
!LO:TX:a:t=P:mixed beam:problem	!	!	!	!	!	!	!	!	!	!	!	!	!	!	!	!	!	!	!	!	!	!	!	!	!	!	!	!LO:N:vis=00	!LO:N:vis=0	!	!LO:N:vis=00	!LO:N:vis=00	!LO:N:vis=00	!LO:N:vis=0
*	*	*	*	*	*	*	*	*	*	*	*	*	*	*	*	*	*	*	*	*	*	*	*	*	*	*tremolo	*	*	*	*	*	*	*	*
!LO:TX:b:t=P:p z dwukropkiem:problem	!	!	!	!	!	!	!	!	!	!	!	!	!	!	!	!	!	!	!	!	!	!	!	!	!	!LO:TX:b:t=P:p z dwukropkiem:problem	!	!	!	!	!	!LO:LB:g=original	!	!
8C/L	p	4c\	de	bum	Pu-	-rum	reg-	-ne-	-o-	8ee\L	-de	-bum	Pu-	-rum	re-	-ne-	-o	(>8gg\L	-de	-bum	pu-	-rum	re-	-ne-	-o	8c\L	p	0.r	1.r	.	0.r	0.r	0.r	1.r
8c\	.	.	.	.	.	.	.	.	.	8dd\J	.	.	-er	Thus	.	.	di-	8ff#\J)	.	.	-er	thus	.	-di-	di-	8c\	.	.	.	.	.	.	.	.
8c\J	.	8c\	gau-	Pat-	-er	Thus	-nat	-di-	-di-	8cc\	gau-	Pat-	e-	Myr-	.	-di-	-ca-	8ee\	gau-	Pat-	e-	myr-	.	-ca-	-ca-	8c\J	.	.	.	.	.	.	.	.
!LO:TX:a:t=P:mixed beam:problem	!	!	!	!	!	!	!	!	!	!	!	!	!	!	!	!	!	!	!	!	!	!	!	!	!	!	!	!	!	!	!	!	!	!
8C/L	.	4c\	-det	-ris	Pu-	Myr-	ſi-	-ca-	-ca-	4cc\	-det	-ris	-rat	-ham	-gnat	-ca-	-mus,	4ee\	-det	-ris	-rat	-ha(m)	-gnat	-mus	-mus	8c\L	.	.	.	.	.	.	.	.
8c\	.	.	.	.	.	.	.	.	.	.	.	.	.	.	.	.	.	.	.	.	.	.	.	.	.	8c\	.	.	.	.	.	.	.	.
8c\J	.	8C/	un-	Ver-	-er	-ham	-ne	-mus	-mus	8cc\	un-	ver-	quod	au-	qui	-mus	De-	8ee\	un-	ver-	quod	au-	qui	be-	De-	8c\J	.	.	.	.	.	.	.	.
=10	=10	=10	=10	=10	=10	=10	=10	=10	=10	=10	=10	=10	=10	=10	=10	=10	=10	=10	=10	=10	=10	=10	=10	=10	=10	=10	=10	=10	=10	=10	=10	=10	=10	=10
8AA/L	.	4A\	-de	-bum	Pu-	of-	ter-	Do-	gra-	8cc\L	-de	-bum	Pu-	-rum	re-	be-	-o	(>8ee\L	-de	-bum	Pu-	-ru(m)	re-	-ne-	-o	8A/L	.	.	.	.	.	.	.	.
8A\	.	.	.	.	.	.	.	.	.	8b\J	.	.	-er	Thus	.	-ne-	di-	8dd\J)	.	.	-er	thus	.	-di-	di-	8A/	.	.	.	.	.	.	.	.
8A\J	.	8A\	gau-	Pat-	-er	-fe-	-mi-	-mi-	-ti-	8a\	gau-	Pat-	e-	Myr-	.	-di-	-ca-	8cc\	gau-	pat-	e-	myr-	.	-ca-	-ca-	8A/J	.	.	.	.	.	.	.	.
8AA/L	.	4A\	-det	-ris	e-	-runt	-no	-no	-as	4a\	-det	-ris	-rat	-cham	-gnat	-ca-	-mus,	4cc\	-det	-ris	-rat	-ha(m)	-gnat	-mus	-mus	8A/L	.	.	.	.	.	.	.	.
8A\	.	.	.	.	.	.	.	.	.	.	.	.	.	.	.	.	.	.	.	.	.	.	.	.	.	8A/	.	.	.	.	.	.	.	.
8A\J	.	8AA/	un-	Ver-	-rat	Au-	qui	be-	De-	16a/LL	un-	ver-	quod	au-	qui	-mus	De-	16cc\LL	un-	ver-	quod	au-	qui	be-	De-	8A/J	.	.	.	.	.	.	.	.
*	*	*	*	*	*	*	*	*	*	*	*	*	*	*	*	*	*	*	*	*	*	*	*	*	*	*Xtremolo	*	*	*	*	*	*	*	*
.	.	.	.	.	.	.	.	.	.	16g/JJ	.	.	.	.	.	.	.	16b\JJ	.	.	.	.	.	.	.	.	.	.	.	.	.	.	.	.
=11	=11	=11	=11	=11	=11	=11	=11	=11	=11	=11	=11	=11	=11	=11	=11	=11	=11	=11	=11	=11	=11	=11	=11	=11	=11	=11	=11	=11	=11	=11	=11	=11	=11	=11
8D\L	.	4D/	-de	-bum	Pu-	-rum	reg-	-ne-	-o	8f#/L	-de	-bum	Pu-	-rum	re-	be-	-o	(>8a\L	-de	-bum	Pu-	-rum	re-	-ne-	-o	8d\L	.	.	2.r	.	.	.	.	2.r
8D\	.	.	.	.	.	.	.	.	.	8g/J	.	.	.	.	.	-ne-	.	8b\J)	.	.	.	.	.	.	.	8d\	.	.	.	.	.	.	.	.
8D\J	.	8D/	gau-	Pat-	-er	thus	-nat	-di-	di-	8a\	gau-	Pat-	-er	Thus	-gnat	-di-	di-	8cc\	gau-	Pat-	-er	thus	-gnat	-di	di-	8d\J	.	.	.	.	.	.	.	.
8D\L	.	4D/	-det	-ris	e-	Myr-	ſi-	-ca-	-ca-	8b\L	-det	-ris	e-	Myr-	ſi-	-ca-	-ca-	(>8dd\L	-det	-ris	e-	myr-	ſi-	ca-	-ca-	8d\L	.	.	.	.	.	.	.	.
8D\	.	.	.	.	.	.	.	.	.	8cc\J	.	.	.	.	.	.	.	8ee\J)	.	.	.	.	.	.	.	8d\	.	.	.	.	.	.	.	.
8E\J	.	16D/LL	Je-	al-	-rat	-ha(m)	-ne	-mus	-mus	8a\	Je-	Al-	-rat	-cha(m)	-ne	-mus	-mus	8cc\	Je-	Al-	-rat	-ham	-ne	-mus	-mus	8e\J	.	.	.	.	.	.	.	.
.	.	16E/JJ	.	.	.	.	.	.	.	.	.	.	.	.	.	.	.	.	.	.	.	.	.	.	.	.	.	.	.	.	.	.	.	.
=12	=12	=12	=12	=12	=12	=12	=12	=12	=12	=12	=12	=12	=12	=12	=12	=12	=12	=12	=12	=12	=12	=12	=12	=12	=12	=12	=12	=12	=12	=12	=12	=12	=12	=12
!	!	!	!	!	!	!	!	!	!	!LO:LB:g=original	!	!	!	!	!	!	!	!LO:LB:g=original	!	!	!	!	!	!	!	!	!	!	!	!	!	!	!	!
*tremolo	*	*	*	*	*	*	*	*	*	*	*	*	*	*	*	*	*	*	*	*	*	*	*	*	*	*tremolo	*	*	*	*	*	*	*	*
8D/L	.	4D/	-ru-	-tis-	Do-	of-	ter-	Do-	Gra-	4g/	-1. ru-	-2. tiſ-	3. Do-	4. of-	5. ter-	6. Do-	7. Gra-	4b\	-1 ru-	-2 tis-	3 Do-	4 of-	5 ter-	6 Do-	7 Gra-	8d\L	.	.	4r	.	.	.	.	4r
8D/	.	.	.	.	.	.	.	.	.	.	.	.	.	.	.	.	.	.	.	.	.	.	.	.	.	8d\	.	.	.	.	.	.	.	.
8D/J	.	8D/	-ſa-	-ſi-	-mi-	-fe-	-mi-	-mi-	-ti-	8f#/	-ſa-	-si-	-mi-	-fe-	-mi-	-mi-	-ti-	8a\	-ſa-	-ſi-	-mi-	-fe-	-mi-	-mi-	-ti-	8d\J	.	.	8r	.	.	.	.	8r
*Xtremolo	*	*	*	*	*	*	*	*	*	*	*	*	*	*	*	*	*	*	*	*	*	*	*	*	*	*Xtremolo	*	*	*	*	*	*	*	*
!	!	!	!	!	!	!	!	!	!	!	!	!	!	!	!	!	!	!	!	!	!	!	!	!	!	!LO:TX:a:t=P:mixed beam:problem	!	!	!	!	!	!	!	!
8G\L	.	4GG/	-lem,	-mi,	-nus,	-runt,	-no,	-no,	-as,	4g/	-lem	-mi	-nus	-runt	-no	-no	-as	4g/	-lem	-mi	-nus	-runt	-no	-no	-as	16G/LL	.	.	8r	.	.	.	.	8r
.	.	.	.	.	.	.	.	.	.	.	.	.	.	.	.	.	.	.	.	.	.	.	.	.	.	16g\	.	.	.	.	.	.	.	.
16D\L	.	.	.	.	.	.	.	.	.	.	.	.	.	.	.	.	.	.	.	.	.	.	.	.	.	16d\	.	.	8r	.	.	.	.	8r
16BB\J	.	.	.	.	.	.	.	.	.	.	.	.	.	.	.	.	.	.	.	.	.	.	.	.	.	16B\J	.	.	.	.	.	.	.	.
8GG\J	.	8r	.	.	.	.	.	.	.	8r	.	.	.	.	.	.	.	8r	.	.	.	.	.	.	.	8G\J	.	.	8gg\	.	.	.	.	8gg\
=13	=13	=13	=13	=13	=13	=13	=13	=13	=13	=13	=13	=13	=13	=13	=13	=13	=13	=13	=13	=13	=13	=13	=13	=13	=13	=13	=13	=13	=13	=13	=13	=13	=13	=13
!LO:LB:g=original	!	!LO:LB:g=original	!	!	!	!	!	!	!	!	!	!	!	!	!	!	!	!	!	!	!	!	!	!	!	!LO:LB:g=original	!	!	!	!	!	!	!	!
!	!	!	!	!	!	!	!	!	!	!LO:TX:a:t=3	!	!	!	!	!	!	!	!LO:TX:a:t=3	!	!	!	!	!	!	!	!	!	!	!	!	!	!	!	!
!LO:TX:a:t=P:mixed beam:problem	!	!LO:TX:a:t=5	!	!	!	!	!	!	!	!LO:N:vis=0	!	!	!	!	!	!	!	!LO:N:vis=0	!	!	!	!	!	!	!	!	!	!	!	!	!	!	!	!
*	*	*	*	*	*	*	*	*	*	*	*	*	*	*	*	*	*	*	*	*	*	*	*	*	*	*tremolo	*	*	*	*	*	*	*	*
!LO:TX:b:t=P:f z dwukropkiem:problem	!	!LO:N:vis=00	!	!	!	!	!	!	!	!	!	!	!	!	!	!	!	!	!	!	!	!	!	!	!	!LO:TX:b:t=P:f z dwukropkiem:problem	!	!	!	!	!	!	!	!
8C/L	f	0.r	.	.	.	.	.	.	.	1.r	.	.	.	.	.	.	.	1.r	.	.	.	.	.	.	.	8c/L	f	16G/LL 16g/	(>8gg\L	.	4.G/	4.g\	4.g/	8gg\L
.	.	.	.	.	.	.	.	.	.	.	.	.	.	.	.	.	.	.	.	.	.	.	.	.	.	.	.	16G/ 16g/	.	.	.	.	.	.
8c\	.	.	.	.	.	.	.	.	.	.	.	.	.	.	.	.	.	.	.	.	.	.	.	.	.	8c/	.	16G/ 16g/	8ff#\	.	.	.	.	8ff#\
.	.	.	.	.	.	.	.	.	.	.	.	.	.	.	.	.	.	.	.	.	.	.	.	.	.	.	.	16G/ 16g/	.	.	.	.	.	.
8c\J	.	.	.	.	.	.	.	.	.	.	.	.	.	.	.	.	.	.	.	.	.	.	.	.	.	8c/J	.	16G/ 16g/	8ee\J)	.	.	.	.	8ee\J
.	.	.	.	.	.	.	.	.	.	.	.	.	.	.	.	.	.	.	.	.	.	.	.	.	.	.	.	16G/JJ 16g/	.	.	.	.	.	.
!LO:TX:a:t=P:mixed beam:problem	!	!	!	!	!	!	!	!	!	!	!	!	!	!	!	!	!	!	!	!	!	!	!	!	!	!	!	!	!	!	!	!	!	!
8C/L	.	.	.	.	.	.	.	.	.	.	.	.	.	.	.	.	.	.	.	.	.	.	.	.	.	8c/L	.	16G/LL 16g/	4ee\	.	4.G/	4.g\	4.g/	4ee\
.	.	.	.	.	.	.	.	.	.	.	.	.	.	.	.	.	.	.	.	.	.	.	.	.	.	.	.	16G/ 16g/	.	.	.	.	.	.
8c\	.	.	.	.	.	.	.	.	.	.	.	.	.	.	.	.	.	.	.	.	.	.	.	.	.	8c/	.	16G/ 16g/	.	.	.	.	.	.
.	.	.	.	.	.	.	.	.	.	.	.	.	.	.	.	.	.	.	.	.	.	.	.	.	.	.	.	16G/ 16g/	.	.	.	.	.	.
8c\J	.	.	.	.	.	.	.	.	.	.	.	.	.	.	.	.	.	.	.	.	.	.	.	.	.	8c/J	.	16G/ 16g/	8ee\	.	.	.	.	8ee\
.	.	.	.	.	.	.	.	.	.	.	.	.	.	.	.	.	.	.	.	.	.	.	.	.	.	.	.	16G/JJ 16g/	.	.	.	.	.	.
=14	=14	=14	=14	=14	=14	=14	=14	=14	=14	=14	=14	=14	=14	=14	=14	=14	=14	=14	=14	=14	=14	=14	=14	=14	=14	=14	=14	=14	=14	=14	=14	=14	=14	=14
!LO:TX:a:t=P:mixed beam:problem	!	!	!	!	!	!	!	!	!	!	!	!	!	!	!	!	!	!	!	!	!	!	!	!	!	!	!	!LO:LB:g=original	!LO:LB:g=original	!	!	!	!	!LO:LB:g=original
8AA/L	.	.	.	.	.	.	.	.	.	.	.	.	.	.	.	.	.	.	.	.	.	.	.	.	.	8A/L	.	16e/LL	8ee\L	.	2.r	2.r	4.e/	8ee\L
.	.	.	.	.	.	.	.	.	.	.	.	.	.	.	.	.	.	.	.	.	.	.	.	.	.	.	.	16e/	.	.	.	.	.	.
8A\	.	.	.	.	.	.	.	.	.	.	.	.	.	.	.	.	.	.	.	.	.	.	.	.	.	8A/	.	16e/	8dd\	.	.	.	.	8dd\
.	.	.	.	.	.	.	.	.	.	.	.	.	.	.	.	.	.	.	.	.	.	.	.	.	.	.	.	16e/	.	.	.	.	.	.
8A\J	.	.	.	.	.	.	.	.	.	.	.	.	.	.	.	.	.	.	.	.	.	.	.	.	.	8A/J	.	16e/	8cc\J	.	.	.	.	8cc\J
.	.	.	.	.	.	.	.	.	.	.	.	.	.	.	.	.	.	.	.	.	.	.	.	.	.	.	.	16e/JJ	.	.	.	.	.	.
!LO:TX:a:t=P:mixed beam:problem	!	!	!	!	!	!	!	!	!	!	!	!	!	!	!	!	!	!	!	!	!	!	!	!	!	!	!	!	!	!	!	!	!	!
8AA/L	.	.	.	.	.	.	.	.	.	.	.	.	.	.	.	.	.	.	.	.	.	.	.	.	.	8A/L	.	16e/LL	4cc\	.	.	.	4e/	4cc\
.	.	.	.	.	.	.	.	.	.	.	.	.	.	.	.	.	.	.	.	.	.	.	.	.	.	.	.	16e/	.	.	.	.	.	.
8A\	.	.	.	.	.	.	.	.	.	.	.	.	.	.	.	.	.	.	.	.	.	.	.	.	.	8A/	.	16e/	.	.	.	.	.	.
.	.	.	.	.	.	.	.	.	.	.	.	.	.	.	.	.	.	.	.	.	.	.	.	.	.	.	.	16e/	.	.	.	.	.	.
8A\J	.	.	.	.	.	.	.	.	.	.	.	.	.	.	.	.	.	.	.	.	.	.	.	.	.	8A/J	.	16e/	16cc\LL	.	.	.	16aa\LL	16ccc\LL
*	*	*	*	*	*	*	*	*	*	*	*	*	*	*	*	*	*	*	*	*	*	*	*	*	*	*Xtremolo	*	*	*	*	*	*	*	*
.	.	.	.	.	.	.	.	.	.	.	.	.	.	.	.	.	.	.	.	.	.	.	.	.	.	.	.	16e/JJ	16b\JJ	.	.	.	16gg\JJ	16bb\JJ
=15	=15	=15	=15	=15	=15	=15	=15	=15	=15	=15	=15	=15	=15	=15	=15	=15	=15	=15	=15	=15	=15	=15	=15	=15	=15	=15	=15	=15	=15	=15	=15	=15	=15	=15
8D\L	.	.	.	.	.	.	.	.	.	2.r	.	.	.	.	.	.	.	2.r	.	.	.	.	.	.	.	8d\L	.	(<8f#/L	(>8a/L	.	8d\L	8a/L	8ff#\L	8aa\L
8D\	.	.	.	.	.	.	.	.	.	.	.	.	.	.	.	.	.	.	.	.	.	.	.	.	.	8d\	.	8g/	8b\	.	8g\	8b\	8gg\	8bb\
8D\J	.	.	.	.	.	.	.	.	.	.	.	.	.	.	.	.	.	.	.	.	.	.	.	.	.	8d\J	.	8a/J)	8cc\J)	.	8a\J	8cc\J	8aa\J	8ccc\J
8D\L	.	.	.	.	.	.	.	.	.	.	.	.	.	.	.	.	.	.	.	.	.	.	.	.	.	8d\L	.	(>8b\L	(>8dd\L	.	8b\L	8dd\L	8bb\L	8ddd\L
8D\	.	.	.	.	.	.	.	.	.	.	.	.	.	.	.	.	.	.	.	.	.	.	.	.	.	8d\	.	8cc\	8ee\	.	8cc\	8ee\	8r	8r
8E\J	.	.	.	.	.	.	.	.	.	.	.	.	.	.	.	.	.	.	.	.	.	.	.	.	.	8e\J	.	8a\J)	8cc\J)	.	8a\J	8cc\J	8aa\J	8ccc\J
=16	=16	=16	=16	=16	=16	=16	=16	=16	=16	=16	=16	=16	=16	=16	=16	=16	=16	=16	=16	=16	=16	=16	=16	=16	=16	=16	=16	=16	=16	=16	=16	=16	=16	=16
*tremolo	*	*	*	*	*	*	*	*	*	*	*	*	*	*	*	*	*	*	*	*	*	*	*	*	*	*	*	*	*	*	*	*	*	*
8D/L	.	.	.	.	.	.	.	.	.	4r	.	.	.	.	.	.	.	4r	.	.	.	.	.	.	.	8d\L	.	4g/	4b/	.	4g\	4b\	4gg\	4bb\
8D/	.	.	.	.	.	.	.	.	.	.	.	.	.	.	.	.	.	.	.	.	.	.	.	.	.	8d\	.	.	.	.	.	.	.	.
!LO:TX:b:t=P:p z dwukropkiem:problem	!	!	!	!	!	!	!	!	!	!	!	!	!	!	!	!	!	!	!	!	!	!	!	!	!	!	!	!	!	!	!	!	!	!
8D/J	f	.	.	.	.	.	.	.	.	8r	.	.	.	.	.	.	.	8r	.	.	.	.	.	.	.	8d\J	.	8f#/	8a/	.	8d/	8a\	8ff#\	8aa\
*Xtremolo	*	*	*	*	*	*	*	*	*	*	*	*	*	*	*	*	*	*	*	*	*	*	*	*	*	*	*	*	*	*	*	*	*	*
8GG/L	.	.	.	.	.	.	.	.	.	4r	.	.	.	.	.	.	.	4r	.	.	.	.	.	.	.	8G/L	.	4G/ 4g/	4g/	.	4B/	4g\	4gg\	4gg\
8BB/	.	.	.	.	.	.	.	.	.	.	.	.	.	.	.	.	.	.	.	.	.	.	.	.	.	16B/L	.	.	.	.	.	.	.	.
.	.	.	.	.	.	.	.	.	.	.	.	.	.	.	.	.	.	.	.	.	.	.	.	.	.	16G/J	.	.	.	.	.	.	.	.
!	!	!	!	!	!	!	!	!	!	!	!	!	!	!	!	!	!	!	!	!	!	!	!	!	!	!	!	!	!	!	!	!	!	!
8D/J	.	.	.	.	.	.	.	.	.	8d/	A-	A-	A-	A-	A-	A-	A-	8d/	A-	A-	A-	A-	A-	A-	A-	8d/J	.	8r	8r	.	8r	8r	8r	8r
=17	=17	=17	=17	=17	=17	=17	=17	=17	=17	=17	=17	=17	=17	=17	=17	=17	=17	=17	=17	=17	=17	=17	=17	=17	=17	=17	=17	=17	=17	=17	=17	=17	=17	=17
!	!	!	!	!	!	!	!	!	!	!	!	!	!	!	!	!	!	!	!	!	!	!	!	!	!	!	!	!	!	!	!	!	!LO:LB:g=original	!
!	!	!	!	!	!	!	!	!	!	!	!	!	!	!	!	!	!	!	!	!	!	!	!	!	!	!	!	!	!LO:TX:a:t=3	!	!LO:TX:a:t=4	!LO:TX:a:t=4	!LO:TX:a:t=4	!LO:TX:a:t=4
!	!	!	!	!	!	!	!	!	!	!	!	!	!	!	!	!	!	!	!	!	!	!	!	!	!	!LO:TX:b:t=P:p z dwukropkiem:problem	!	!LO:N:vis=00	!LO:N:vis=0	!	!LO:N:vis=00	!LO:N:vis=00	!LO:N:vis=00	!LO:N:vis=00
4G\	p	2.r	.	.	.	.	.	.	.	4g/	-le-	-le-	-le-	-le-	-le-	-le-	-le-	4g/	-le-	-le-	-le-	-le-	-le-	-le-	-le-	4g\	p	0.r	1.r	.	0.r	0.r	0.r	0.r
8B\	.	.	.	.	.	.	.	.	.	8b\	-lu-	-lu-	-lu-	-lu-	-lu-	-lu-	-lu-	8b\	-lu-	-lu-	-lu-	-lu-	-lu-	-lu-	-lu-	8b\	.	.	.	.	.	.	.	.
4d\	.	.	.	.	.	.	.	.	.	4dd\	-ja	-ja	-ja	-ja	-ja	-ja	-ja	4dd\	-ja	-ja	-ja	-ja	-ja	-ja	-ja	4dd\	.	.	.	.	.	.	.	.
8G\	.	.	.	.	.	.	.	.	.	8g/	A-	A-	A-	A-	A-	A-	A-	8b\	a-	a-	a-	A-	A-	A-	A-	8g\	.	.	.	.	.	.	.	.
=18	=18	=18	=18	=18	=18	=18	=18	=18	=18	=18	=18	=18	=18	=18	=18	=18	=18	=18	=18	=18	=18	=18	=18	=18	=18	=18	=18	=18	=18	=18	=18	=18	=18	=18
!LO:LB:g=original	!	!	!	!	!	!	!	!	!	!	!	!	!	!	!	!	!	!	!	!	!	!	!	!	!	!	!	!	!	!	!	!	!	!
8D\L	.	4r	.	.	.	.	.	.	.	4d/	-le-	-le-	-le-	-le-	-le-	-le-	-le-	(<8aL/	-le-	-le-	-le-	-le-	-le-	-le-	-le-	8c\L	.	.	.	.	.	.	.	.
8D\	.	.	.	.	.	.	.	.	.	.	.	.	.	.	.	.	.	8gJ)/	.	.	.	.	.	.	.	8B/	.	.	.	.	.	.	.	.
8D\J	.	8r	.	.	.	.	.	.	.	8d/	-lu-	-lu-	-lu-	-lu-	-lu-	-lu-	-lu-	8a/	-lu-	-lu-	-lu-	-lu-	-lu-	-lu-	-lu-	8c\J	.	.	.	.	.	.	.	.
8GG/L	.	4r	.	.	.	.	.	.	.	4g/	-ja	-ja	-ja	-ja	-ja	-ja	-ja.	4g/	-ja	-ja	-ja	-ja	-ja	-ja	-ja.	8B/L	.	.	.	.	.	.	.	.
8GG/	.	.	.	.	.	.	.	.	.	.	.	.	.	.	.	.	.	.	.	.	.	.	.	.	.	8d/	.	.	.	.	.	.	.	.
!	!	!LO:TX:a:i:t=Solo	!	!	!	!	!	!	!	!	!	!	!	!	!	!	!	!	!	!	!	!	!	!	!	!	!	!	!	!	!	!	!	!
8GG/J	.	8D/	Nro1. A-	2 A-	4 A-	3 A-	5 A-	6 A-	7 A-	8r	.	.	.	.	.	.	.	8r	.	.	.	.	.	.	.	8B/J	.	.	.	.	.	.	.	.
=19	=19	=19	=19	=19	=19	=19	=19	=19	=19	=19	=19	=19	=19	=19	=19	=19	=19	=19	=19	=19	=19	=19	=19	=19	=19	=19	=19	=19	=19	=19	=19	=19	=19	=19
!	!	!	!	!	!	!	!	!	!	!LO:TX:a:t=7	!	!	!	!	!	!	!	!LO:TX:a:t=7	!	!	!	!	!	!	!	!	!	!	!	!	!	!	!	!
!	!	!	!	!	!	!	!	!	!	!LO:N:vis=00	!	!	!	!	!	!	!	!LO:N:vis=00	!	!	!	!	!	!	!	!	!	!	!	!	!	!	!	!
4.GG/	.	16G\LL	-le-	-le-	-le-	-le-	-le-	-le-	-le-	0.r	.	.	.	.	.	.	.	0.r	.	.	.	.	.	.	.	8B/L	.	.	2.r	.	.	.	.	.
.	.	16F#\	.	.	.	.	.	.	.	.	.	.	.	.	.	.	.	.	.	.	.	.	.	.	.	.	.	.	.	.	.	.	.	.
.	.	16G\	.	.	.	.	.	.	.	.	.	.	.	.	.	.	.	.	.	.	.	.	.	.	.	8dJ	.	.	.	.	.	.	.	.
.	.	16A\JJ	.	.	.	.	.	.	.	.	.	.	.	.	.	.	.	.	.	.	.	.	.	.	.	.	.	.	.	.	.	.	.	.
.	.	16B\LL	-lu-	-lu-	-lu-	-lu-	-lu-	-lu-	-lu-	.	.	.	.	.	.	.	.	.	.	.	.	.	.	.	.	16g\LL	.	.	.	.	.	.	.	.
.	.	16c\JJ	.	.	.	.	.	.	.	.	.	.	.	.	.	.	.	.	.	.	.	.	.	.	.	16a\JJ	.	.	.	.	.	.	.	.
4.G\	.	4d\	-ja	-ja	-ja	-ja	-ja	-ja	-ja	.	.	.	.	.	.	.	.	.	.	.	.	.	.	.	.	4b\	.	.	.	.	.	.	.	.
.	.	8B\	A-	A-	A-	A-	A-	A-	A-	.	.	.	.	.	.	.	.	.	.	.	.	.	.	.	.	8B\	.	.	.	.	.	.	.	.
=20	=20	=20	=20	=20	=20	=20	=20	=20	=20	=20	=20	=20	=20	=20	=20	=20	=20	=20	=20	=20	=20	=20	=20	=20	=20	=20	=20	=20	=20	=20	=20	=20	=20	=20
!	!	!	!	!	!	!	!	!	!	!	!	!	!	!	!	!	!	!	!	!	!	!	!	!	!	!LO:LB:g=original	!	!	!	!	!	!	!	!
4.D\	.	16A\LL	-le-	-le-	-le-	-le-	-le-	-le-	-le-	.	.	.	.	.	.	.	.	.	.	.	.	.	.	.	.	16c\LL	.	.	4r	.	.	.	.	.
.	.	16G\	.	.	.	.	.	.	.	.	.	.	.	.	.	.	.	.	.	.	.	.	.	.	.	16B/	.	.	.	.	.	.	.	.
.	.	16A\	.	.	.	.	.	.	.	.	.	.	.	.	.	.	.	.	.	.	.	.	.	.	.	16c\	.	.	.	.	.	.	.	.
.	.	16G\JJ	.	.	.	.	.	.	.	.	.	.	.	.	.	.	.	.	.	.	.	.	.	.	.	16B/	.	.	.	.	.	.	.	.
.	.	16A\LL	-lu-	-lu-	-lu-	-lu-	-lu-	-lu-	-lu-	.	.	.	.	.	.	.	.	.	.	.	.	.	.	.	.	16c\	.	.	8r	.	.	.	.	.
.	.	16B\JJ	.	.	.	.	.	.	.	.	.	.	.	.	.	.	.	.	.	.	.	.	.	.	.	16d\JJ	.	.	.	.	.	.	.	.
4.G\	.	4G\	-ja.	-ja.	-ja.	-ja.	-ja.	-ja.	-ja.	.	.	.	.	.	.	.	.	.	.	.	.	.	.	.	.	4B/ 4d/	.	.	8r	.	.	.	.	.
.	.	.	.	.	.	.	.	.	.	.	.	.	.	.	.	.	.	.	.	.	.	.	.	.	.	.	.	.	8r	.	.	.	.	.
!	!	!	!	!	!	!	!	!	!	!	!	!	!	!	!	!	!	!	!	!	!	!	!	!	!	!	!	!	!LO:TX:b:i:t=for&colon;	!	!	!	!	!
.	.	8r	.	.	.	.	.	.	.	.	.	.	.	.	.	.	.	.	.	.	.	.	.	.	.	8B/ 8d/	.	.	8dd\	.	.	.	.	.
=21	=21	=21	=21	=21	=21	=21	=21	=21	=21	=21	=21	=21	=21	=21	=21	=21	=21	=21	=21	=21	=21	=21	=21	=21	=21	=21	=21	=21	=21	=21	=21	=21	=21	=21
*tremolo	*	*	*	*	*	*	*	*	*	*	*	*	*	*	*	*	*	*	*	*	*	*	*	*	*	*tremolo	*	*	*	*	*	*	*	*
!LO:TX:b:Bi:t=for&colon;	!	!LO:TX:a:t=P:o jedną pauzę całotaktową za dużo:problem	!	!	!	!	!	!	!	!	!	!	!	!	!	!	!	!	!	!	!	!	!	!	!	!	!	!	!	!	!LO:LB:g=original	!	!	!
!	!	!LO:N:vis=00	!	!	!	!	!	!	!	!	!	!	!	!	!	!	!	!	!	!	!	!	!	!	!	!	!	!	!	!	!	!	!	!
8G\L	.	0.r	.	.	.	.	.	.	.	.	.	.	.	.	.	.	.	.	.	.	.	.	.	.	.	8B/L 8d/	.	16d/LL 16b/	8gg\L	.	8G/L	4g\	4b\	4gg\
.	.	.	.	.	.	.	.	.	.	.	.	.	.	.	.	.	.	.	.	.	.	.	.	.	.	.	.	16d/ 16b/	.	.	.	.	.	.
8G\	.	.	.	.	.	.	.	.	.	.	.	.	.	.	.	.	.	.	.	.	.	.	.	.	.	8B/ 8d/	.	16d/ 16b/	16gg\L	.	8B/	.	.	.
.	.	.	.	.	.	.	.	.	.	.	.	.	.	.	.	.	.	.	.	.	.	.	.	.	.	.	.	16d/ 16b/	16bb\	.	.	.	.	.
8G\J	.	.	.	.	.	.	.	.	.	.	.	.	.	.	.	.	.	.	.	.	.	.	.	.	.	8B/J 8d/	.	16d/ 16cc/	16aa\	.	8d/J	8a\	8cc\	16aa\LL
.	.	.	.	.	.	.	.	.	.	.	.	.	.	.	.	.	.	.	.	.	.	.	.	.	.	.	.	16d/JJ 16cc/	16ff#\JJ	.	.	.	.	16ff#\JJ
*	*	*	*	*	*	*	*	*	*	*	*	*	*	*	*	*	*	*	*	*	*	*	*	*	*	*	*	*tremolo	*	*	*	*	*	*
8G\L	.	.	.	.	.	.	.	.	.	.	.	.	.	.	.	.	.	.	.	.	.	.	.	.	.	8B/L 8d/	.	16d/LL 16b/	8gg\L	.	4B/	8g/L	4b\	8gg\
.	.	.	.	.	.	.	.	.	.	.	.	.	.	.	.	.	.	.	.	.	.	.	.	.	.	.	.	16d/ 16b/	.	.	.	.	.	.
8G\	.	.	.	.	.	.	.	.	.	.	.	.	.	.	.	.	.	.	.	.	.	.	.	.	.	8B/ 8d/	.	16d/ 16b/	8bb\	.	.	8b\	.	8r
.	.	.	.	.	.	.	.	.	.	.	.	.	.	.	.	.	.	.	.	.	.	.	.	.	.	.	.	16d/ 16b/	.	.	.	.	.	.
8G\J	.	.	.	.	.	.	.	.	.	.	.	.	.	.	.	.	.	.	.	.	.	.	.	.	.	8B/J 8d/	.	16d/ 16b/	8ddd\J	.	8r	8dd\J	8r	8r
.	.	.	.	.	.	.	.	.	.	.	.	.	.	.	.	.	.	.	.	.	.	.	.	.	.	.	.	16d/JJ 16b/	.	.	.	.	.	.
*	*	*	*	*	*	*	*	*	*	*	*	*	*	*	*	*	*	*	*	*	*	*	*	*	*	*	*	*Xtremolo	*	*	*	*	*	*
=22	=22	=22	=22	=22	=22	=22	=22	=22	=22	=22	=22	=22	=22	=22	=22	=22	=22	=22	=22	=22	=22	=22	=22	=22	=22	=22	=22	=22	=22	=22	=22	=22	=22	=22
!	!	!	!	!	!	!	!	!	!	!	!	!	!	!	!	!	!	!	!	!	!	!	!	!	!	!	!	!	!LO:LB:g=original	!	!	!	!	!
8D\L	.	.	.	.	.	.	.	.	.	.	.	.	.	.	.	.	.	.	.	.	.	.	.	.	.	8d\L	.	16f#/LL	8ccc\L	.	2.r	2.r	4.a/	8ccc\L
.	.	.	.	.	.	.	.	.	.	.	.	.	.	.	.	.	.	.	.	.	.	.	.	.	.	.	.	16a/	.	.	.	.	.	.
8D\	.	.	.	.	.	.	.	.	.	.	.	.	.	.	.	.	.	.	.	.	.	.	.	.	.	8d\	.	16f#/	16aa\L	.	.	.	.	8aa\
.	.	.	.	.	.	.	.	.	.	.	.	.	.	.	.	.	.	.	.	.	.	.	.	.	.	.	.	16a/	16ccc\	.	.	.	.	.
8D\J	.	.	.	.	.	.	.	.	.	.	.	.	.	.	.	.	.	.	.	.	.	.	.	.	.	8d\J	.	16f#/	16aa\	.	.	.	.	8ff#\J
.	.	.	.	.	.	.	.	.	.	.	.	.	.	.	.	.	.	.	.	.	.	.	.	.	.	.	.	16a/JJ	16ff#\JJ	.	.	.	.	.
!	!	!	!	!	!	!	!	!	!	!	!	!	!	!	!	!	!	!	!	!	!	!	!	!	!	!	!	!LO:LB:g=original	!	!	!	!	!	!
8G\L	.	.	.	.	.	.	.	.	.	.	.	.	.	.	.	.	.	.	.	.	.	.	.	.	.	8B/L 8d/	.	16d/LL	4gg\	.	.	.	4.b/	4gg\
.	.	.	.	.	.	.	.	.	.	.	.	.	.	.	.	.	.	.	.	.	.	.	.	.	.	.	.	16b/	.	.	.	.	.	.
8G\	.	.	.	.	.	.	.	.	.	.	.	.	.	.	.	.	.	.	.	.	.	.	.	.	.	8B/ 8d/	.	16d/	.	.	.	.	.	.
.	.	.	.	.	.	.	.	.	.	.	.	.	.	.	.	.	.	.	.	.	.	.	.	.	.	.	.	16b/	.	.	.	.	.	.
8G\J	.	.	.	.	.	.	.	.	.	.	.	.	.	.	.	.	.	.	.	.	.	.	.	.	.	8B/J 8d/	.	16d/	8dd\	.	.	.	.	8dd\
*	*	*	*	*	*	*	*	*	*	*	*	*	*	*	*	*	*	*	*	*	*	*	*	*	*	*Xtremolo	*	*	*	*	*	*	*	*
.	.	.	.	.	.	.	.	.	.	.	.	.	.	.	.	.	.	.	.	.	.	.	.	.	.	.	.	16b/JJ	.	.	.	.	.	.
=23	=23	=23	=23	=23	=23	=23	=23	=23	=23	=23	=23	=23	=23	=23	=23	=23	=23	=23	=23	=23	=23	=23	=23	=23	=23	=23	=23	=23	=23	=23	=23	=23	=23	=23
*	*	*	*	*	*	*	*	*	*	*	*	*	*	*	*	*	*	*	*	*	*	*	*	*	*	*^	*	*	*	*	*	*	*	*
!	!	!	!	!	!	!	!	!	!	!LO:N:vis=0	!	!	!	!	!	!	!	!LO:N:vis=0	!	!	!	!	!	!	!	!	!	!	!	!	!	!	!	!	!LO:LB:g=original
8G\L	.	.	.	.	.	.	.	.	.	1.r	.	.	.	.	.	.	.	1.r	.	.	.	.	.	.	.	8d/L	8B\L	.	8d/L 8b/	16gg\LL	.	4.G/	4.g\	8b/	8gg\
.	.	.	.	.	.	.	.	.	.	.	.	.	.	.	.	.	.	.	.	.	.	.	.	.	.	.	.	.	.	16ff#\	.	.	.	.	.
8G\	.	.	.	.	.	.	.	.	.	.	.	.	.	.	.	.	.	.	.	.	.	.	.	.	.	8d/	8B\	.	16d/L 16b/	16gg\	.	.	.	8r	8r
.	.	.	.	.	.	.	.	.	.	.	.	.	.	.	.	.	.	.	.	.	.	.	.	.	.	.	.	.	16dd/	16bb\	.	.	.	.	.
8G\J	.	.	.	.	.	.	.	.	.	.	.	.	.	.	.	.	.	.	.	.	.	.	.	.	.	8d/J	8c\J	.	16cc/	16aa\	.	.	.	16cc\LL	16aa\LL
.	.	.	.	.	.	.	.	.	.	.	.	.	.	.	.	.	.	.	.	.	.	.	.	.	.	.	.	.	16a/JJ	16ff#\JJ	.	.	.	16a/JJ	16ff#\JJ
*	*	*	*	*	*	*	*	*	*	*	*	*	*	*	*	*	*	*	*	*	*	*	*	*	*	*tremolo	*tremolo	*	*	*	*	*	*	*	*
8G\L	.	.	.	.	.	.	.	.	.	.	.	.	.	.	.	.	.	.	.	.	.	.	.	.	.	8d/L	8B\L	.	16d/LL 16b/	8gg\L	.	4.B/	4.g\	4b/	8gg\
.	.	.	.	.	.	.	.	.	.	.	.	.	.	.	.	.	.	.	.	.	.	.	.	.	.	.	.	.	16d/ 16b/	.	.	.	.	.	.
8G\	.	.	.	.	.	.	.	.	.	.	.	.	.	.	.	.	.	.	.	.	.	.	.	.	.	8d/	8B\	.	16d/ 16b/	8bb\	.	.	.	.	8r
.	.	.	.	.	.	.	.	.	.	.	.	.	.	.	.	.	.	.	.	.	.	.	.	.	.	.	.	.	16d/ 16b/	.	.	.	.	.	.
8G\J	.	.	.	.	.	.	.	.	.	.	.	.	.	.	.	.	.	.	.	.	.	.	.	.	.	8d/J	8B\J	.	16d/ 16b/	8ddd\J	.	.	.	8r	8r
.	.	.	.	.	.	.	.	.	.	.	.	.	.	.	.	.	.	.	.	.	.	.	.	.	.	.	.	.	16d/JJ 16b/	.	.	.	.	.	.
*	*	*	*	*	*	*	*	*	*	*	*	*	*	*	*	*	*	*	*	*	*	*	*	*	*	*v	*v	*	*	*	*	*	*	*	*
=24	=24	=24	=24	=24	=24	=24	=24	=24	=24	=24	=24	=24	=24	=24	=24	=24	=24	=24	=24	=24	=24	=24	=24	=24	=24	=24	=24	=24	=24	=24	=24	=24	=24	=24
8D\L	.	.	.	.	.	.	.	.	.	.	.	.	.	.	.	.	.	.	.	.	.	.	.	.	.	8dd\L	.	16d/LL 16a/	8ccc\L	.	4.d/	4.g\	4.dd\	8ccc\L
.	.	.	.	.	.	.	.	.	.	.	.	.	.	.	.	.	.	.	.	.	.	.	.	.	.	.	.	16d/ 16a/	.	.	.	.	.	.
8D\	.	.	.	.	.	.	.	.	.	.	.	.	.	.	.	.	.	.	.	.	.	.	.	.	.	8dd\	.	16d/ 16a/	16aa\L	.	.	.	.	8aa\
.	.	.	.	.	.	.	.	.	.	.	.	.	.	.	.	.	.	.	.	.	.	.	.	.	.	.	.	16d/ 16a/	16ccc\	.	.	.	.	.
8D\J	.	.	.	.	.	.	.	.	.	.	.	.	.	.	.	.	.	.	.	.	.	.	.	.	.	8d\J	.	16d/ 16cc/	16aa\	.	.	.	.	8ff#\J
.	.	.	.	.	.	.	.	.	.	.	.	.	.	.	.	.	.	.	.	.	.	.	.	.	.	.	.	16d/JJ 16cc/	16ff#\JJ	.	.	.	.	.
*	*	*	*	*	*	*	*	*	*	*	*	*	*	*	*	*	*	*	*	*	*	*	*	*	*	*^	*	*	*	*	*	*	*	*
8G\L	.	.	.	.	.	.	.	.	.	.	.	.	.	.	.	.	.	.	.	.	.	.	.	.	.	8d/L	8B\L	.	8d/L 8b/	4gg\	.	4.B/	4.g\	4.b\	4gg\
8G\	.	.	.	.	.	.	.	.	.	.	.	.	.	.	.	.	.	.	.	.	.	.	.	.	.	8d/	8B\	.	8d/ 8b/	.	.	.	.	.	.
8G\J	.	.	.	.	.	.	.	.	.	.	.	.	.	.	.	.	.	.	.	.	.	.	.	.	.	8d/J	8B\J	.	8d/J 8b/	8dd\	.	.	.	.	8dd\
*	*	*	*	*	*	*	*	*	*	*	*	*	*	*	*	*	*	*	*	*	*	*	*	*	*	*v	*v	*	*	*	*	*	*	*	*
=25	=25	=25	=25	=25	=25	=25	=25	=25	=25	=25	=25	=25	=25	=25	=25	=25	=25	=25	=25	=25	=25	=25	=25	=25	=25	=25	=25	=25	=25	=25	=25	=25	=25	=25
!LO:LB:g=original	!	!LO:N:vis=0	!	!	!	!	!	!	!	!	!	!	!	!	!	!	!	!	!	!	!	!	!	!	!	!	!	!	!	!	!	!LO:LB:g=original	!	!
8G\L	.	1.r	.	.	.	.	.	.	.	2.r	.	.	.	.	.	.	.	2.r	.	.	.	.	.	.	.	8G/L	.	8.d/L 8.b/	8.gg\L	.	4B/	4g\	4b\	4gg\
8B\	.	.	.	.	.	.	.	.	.	.	.	.	.	.	.	.	.	.	.	.	.	.	.	.	.	8B/	.	.	.	.	.	.	.	.
.	.	.	.	.	.	.	.	.	.	.	.	.	.	.	.	.	.	.	.	.	.	.	.	.	.	.	.	16dd/L	16bb\L	.	.	.	.	.
8d\J	.	.	.	.	.	.	.	.	.	.	.	.	.	.	.	.	.	.	.	.	.	.	.	.	.	8d/J	.	16cc/	16aa\	.	8d/	8a\	16cc\LL	16aa\LL
.	.	.	.	.	.	.	.	.	.	.	.	.	.	.	.	.	.	.	.	.	.	.	.	.	.	.	.	16a/JJ	16ff#\JJ	.	.	.	16a\JJ	16ff#\JJ
8G\L	.	.	.	.	.	.	.	.	.	.	.	.	.	.	.	.	.	.	.	.	.	.	.	.	.	8g\L	.	16b\LL	16gg\LL	.	4B/	4g\	4b\	4gg\
.	.	.	.	.	.	.	.	.	.	.	.	.	.	.	.	.	.	.	.	.	.	.	.	.	.	.	.	16a\	16ff#\	.	.	.	.	.
8B\	.	.	.	.	.	.	.	.	.	.	.	.	.	.	.	.	.	.	.	.	.	.	.	.	.	8b\	.	16b\	16gg\	.	.	.	.	.
.	.	.	.	.	.	.	.	.	.	.	.	.	.	.	.	.	.	.	.	.	.	.	.	.	.	.	.	16dd\	16bb\	.	.	.	.	.
8d\J	.	.	.	.	.	.	.	.	.	.	.	.	.	.	.	.	.	.	.	.	.	.	.	.	.	8dd\J	.	16cc\	16aa\	.	8d/	8a\	16cc\LL	16aa\LL
.	.	.	.	.	.	.	.	.	.	.	.	.	.	.	.	.	.	.	.	.	.	.	.	.	.	.	.	16a\JJ	16ff#\JJ	.	.	.	16a\JJ	16ff#\JJ
=26	=26	=26	=26	=26	=26	=26	=26	=26	=26	=26	=26	=26	=26	=26	=26	=26	=26	=26	=26	=26	=26	=26	=26	=26	=26	=26	=26	=26	=26	=26	=26	=26	=26	=26
!	!	!	!	!	!	!	!	!	!	!	!	!	!	!	!	!	!	!	!	!	!	!	!	!	!	!LO:LB:g=original	!	!LO:LB:g=original	!LO:LB:g=original	!	!	!	!LO:LB:g=original	!
8G\L	.	.	.	.	.	.	.	.	.	4r	.	.	.	.	.	.	.	4r	.	.	.	.	.	.	.	8g\L	.	8d/L 8b/	8b\L 8gg\	.	8B/L	8g\L	8b\L	8gg\L
8D\	.	.	.	.	.	.	.	.	.	.	.	.	.	.	.	.	.	.	.	.	.	.	.	.	.	8d\	.	8d/ 8b/	8b\ 8gg\	.	8B/	8g\	8b\	8gg\
8BB\J	.	.	.	.	.	.	.	.	.	8r	.	.	.	.	.	.	.	8r	.	.	.	.	.	.	.	8B\J	.	8d/J 8b/	8b\J 8gg\	.	8B/J	8g\J	8dd\J	8gg\J
4GG/	.	.	.	.	.	.	.	.	.	4r	.	.	.	.	.	.	.	4r	.	.	.	.	.	.	.	4G/	.	4d/ 4b/	4d/ 4b/ 4gg/	.	4B/	4g\	4b\	4gg\
!LO:TX:b:B:t=Da Capo. G-ties repetitur.	!	!	!	!	!	!	!	!	!	!LO:TX:b:B:t=Da Capo G repete.	!	!	!	!	!	!	!	!LO:TX:b:B:t=Da Capo. G.repeti&colon;	!	!	!	!	!	!	!	!LO:TX:b:B:t=Da Capo. G-ties repetitur.	!	!LO:TX:b:B:t=Da Capo. G-ties repetitur.	!LO:TX:b:B:t=Da Capo. G-ties repetitur.	!	!LO:TX:b:B:t=Da Capo. G-ties repetitur.	!LO:TX:b:B:t=Da Capo. G-ties repetitur.	!LO:TX:b:B:t=Da Capo. G-ties repetitur.	!LO:TX:b:B:t=Da Capo. G-ties repetitur.
8r	.	.	.	.	.	.	.	.	.	8ryy	.	.	.	.	.	.	.	8ryy	.	.	.	.	.	.	.	8ryy	.	8r	8r	.	8r	8ryy	8r	8r
==	==	==	==	==	==	==	==	==	==	==	==	==	==	==	==	==	==	==	==	==	==	==	==	==	==	==	==	==	==	==	==	==	==	==
*-	*-	*-	*-	*-	*-	*-	*-	*-	*-	*-	*-	*-	*-	*-	*-	*-	*-	*-	*-	*-	*-	*-	*-	*-	*-	*-	*-	*-	*-	*-	*-	*-	*-	*-
!!!system-decoration: s1,s2,s3,s4,s5,s6,s7,s8,s9,s10,s11
!!!RDF**kern: > = above
!!!RDF**kern: < = below
!!!ENC: Marta Lawrence
!!!END: 2020-03-03
